X:1
T:Pampanito, 87.87 D
T:Pampanito, 87.87 D
T:George F. Ferreira, 1899
T:Public Domain Courtesy of the Cyber Hymnal™
C:George F. Ferreira, 1899
Z:Public Domain
Z:Courtesy of the Cyber Hymnal™
%%score ( 1 2 ) ( 3 4 )
L:1/8
Q:1/4=102
M:6/8
K:Db
V:1 treble 
V:2 treble 
V:3 bass 
V:4 bass 
V:1
 F2 E D2 E | F2 E D2 E | F2 A G2 F | [CE]2 [=B,=D] [CE]3 | F2 E D2 E | [DF]2 [FA] c2 A | %6
 [Fd]2 [Ec] [DB]2 [C=A] | [DB]2 [Ec] [CA]3 | d2 c B2 A | B2 A G2 F | [CE]2 [=B,=D] [CE]2 [_DF] | %11
 [EG]2 [FA] [DF]3 | F2 E D2 E | F2 A d2 B | A2 B [DA]2 D | [B,E]2 [CF] [A,D]3 |] %16
V:2
 D3 D3 | D3 D3 | D3 D3 | x6 | D3 D3 | x3 E3 | x6 | x6 | F3 D3 | D3 D3 | x6 | x6 | D3 D3 | %13
 D3 [DG]3 | D3 D x2 | x6 |] %16
V:3
 A,2 G, F,2 G, | A,2 G, F,2 G, | A,2 C B,2 A, | G,2 F, G,3 | A,2 G, F,2 G, | [D,A,]3 [E,A,]3 | %6
 B,2 A, =G,2 ^F, | [E,=G,]3 [A,,A,]3 | A,3 G,2 F, | G,2 C B,2 A, | [A,,A,]3 [A,,A,]3 | %11
 [A,,A,]3 [D,A,]3 | A,2 G, F,2 G, | A,3 B,2 G, | F,2 G, [D,F,]2 [B,,F,] | %15
 [G,,G,]2 [A,,G,] [D,F,]3 |] %16
V:4
 D,6 | D,6 | D,6 | A,,6 | D,6 | x6 | E,3 E,3 | x6 | D,6 | D,6 | x6 | x6 | D,6 | D,6 | D,3 x3 | %15
 x6 |] %16

